X:0815
M:6/8
L:1/8
Q:3/8=56 "Slow"
K:D
d   |    f>ga/b/ afd|e>de/f/ edB   |f>ga/b/ afd    |fee e2
d   |    f>ga/b/ afd|e>de/f/ edB   |D>FA/B/ deg    |fed d2:|

